exports/fertilizer-price-index-1960-2030_v1_850x600.svg

<svg xmlns="http://www.w3.org/2000/svg" version="1.1" style="background-color:#fff;-webkit-font-smoothing:antialiased" width="850" height="600" font-family="'Helvetica Neue',Helvetica,Arial,sans-serif" font-size="18" text-rendering="optimizeLegibility"><g class="ChartTab"><g class="HeaderView"><g opacity=".8" transform="matrix(.31 0 0 .31 770 15)"><a xmlns:xlink="http://www.w3.org/1999/xlink" xlink:href="https://ourworldindata.org" target="_blank"><g><path fill="#1B2543" d="M0 0h211.2v130.1H0z"/><path fill="#E63912" d="M0 112.2h211.2v17.9H0z"/><g><path fill="none" d="M1.2 12.3h210.2v99.2H1.2z"/><path fill="#FFF" d="M37.8 32.2c0 12.7-7.7 19.4-17.1 19.4-9.7 0-16.6-7.5-16.6-18.7 0-11.7 7.3-19.3 17.1-19.3 10.1.1 16.6 7.7 16.6 18.6zm-28.6.6c0 7.9 4.3 14.9 11.8 14.9 7.5 0 11.8-6.9 11.8-15.3 0-7.3-3.8-14.9-11.8-14.9-7.9 0-11.8 7.3-11.8 15.3zM62.7 43.8c0 2.7.1 5.1.2 7.2h-4.3l-.3-4.3h-.1c-1.3 2.1-4 4.9-8.8 4.9-4.2 0-9.1-2.3-9.1-11.6V24.6h4.8v14.6c0 5 1.5 8.4 5.9 8.4 3.2 0 5.5-2.2 6.3-4.4.3-.7.4-1.6.4-2.5V24.6h4.8v19.2zM67.3 32.8c0-3.1-.1-5.8-.2-8.2h4.2l.2 5.2h.2c1.2-3.5 4.1-5.8 7.3-5.8.5 0 .9.1 1.4.2v4.5c-.5-.1-1-.2-1.6-.2-3.4 0-5.8 2.6-6.5 6.2-.1.7-.2 1.4-.2 2.2V51h-4.8V32.8zM95.4 51L86 14.2h5l4.4 18.6c1.1 4.6 2.1 9.2 2.7 12.7h.1c.6-3.7 1.8-8 3-12.8l4.9-18.5h5l4.5 18.7c1 4.4 2 8.7 2.6 12.6h.1c.8-4 1.8-8.1 3-12.7l4.9-18.5h4.9L120.6 51h-5L111 31.9c-1.1-4.7-1.9-8.3-2.4-12h-.1c-.7 3.7-1.5 7.3-2.8 12L100.4 51h-5zM154.9 37.6c0 9.8-6.8 14-13.2 14-7.2 0-12.7-5.2-12.7-13.6 0-8.8 5.8-14 13.1-14 7.7 0 12.8 5.5 12.8 13.6zm-21 .3c0 5.8 3.3 10.1 8 10.1 4.6 0 8-4.3 8-10.3 0-4.5-2.2-10.1-7.9-10.1s-8.1 5.2-8.1 10.3zM158.2 32.8c0-3.1-.1-5.8-.2-8.2h4.2l.2 5.2h.2c1.2-3.5 4.1-5.8 7.3-5.8.5 0 .9.1 1.4.2v4.5c-.5-.1-1-.2-1.6-.2-3.4 0-5.8 2.6-6.5 6.2-.1.7-.2 1.4-.2 2.2V51h-4.8V32.8zM173.5 12.3h4.8V51h-4.8V12.3zM206.5 12.3v31.9c0 2.3.1 5 .2 6.8h-4.3l-.2-4.6h-.2c-1.5 2.9-4.7 5.2-9 5.2-6.4 0-11.3-5.4-11.3-13.4-.1-8.8 5.4-14.2 11.9-14.2 4 0 6.8 1.9 8 4h.1V12.3h4.8zm-4.8 23.1c0-.6-.1-1.4-.2-2a7 7 0 00-6.9-5.6c-5 0-7.9 4.4-7.9 10.2 0 5.3 2.6 9.8 7.8 9.8 3.2 0 6.2-2.1 7.1-5.7.2-.7.2-1.3.2-2.1v-4.6zM42.8 64c.1 1.6-1.1 2.9-3.1 2.9-1.7 0-2.9-1.3-2.9-2.9 0-1.7 1.3-3 3-3 1.9 0 3 1.3 3 3zm-5.4 33.8V71.4h4.8v26.4h-4.8zM47.5 78.6c0-2.7-.1-5-.2-7.1h4.3l.3 4.4h.1c1.3-2.5 4.4-5 8.8-5 3.7 0 9.4 2.2 9.4 11.2v15.8h-4.8V82.6c0-4.3-1.6-7.8-6.1-7.8-3.2 0-5.6 2.2-6.5 4.9-.2.6-.3 1.4-.3 2.2v15.9h-4.8V78.6zM84 61.6c2.9-.4 6.3-.8 10.1-.8 6.8 0 11.7 1.6 14.9 4.6 3.3 3 5.2 7.3 5.2 13.2 0 6-1.9 10.9-5.3 14.3-3.4 3.4-9.1 5.3-16.3 5.3-3.4 0-6.2-.2-8.6-.4V61.6zm4.8 32.5c1.2.2 3 .3 4.8.3 10.2 0 15.7-5.7 15.7-15.6.1-8.7-4.9-14.2-14.9-14.2-2.5 0-4.3.2-5.6.5v29zM132.1 97.8l-.4-3.3h-.2a9.79 9.79 0 01-8.1 3.9c-5.4 0-8.1-3.8-8.1-7.6 0-6.4 5.7-9.9 15.9-9.8v-.5c0-2.2-.6-6.1-6-6.1-2.5 0-5 .8-6.9 2l-1.1-3.2c2.2-1.4 5.4-2.3 8.7-2.3 8.1 0 10.1 5.5 10.1 10.8v9.9c0 2.3.1 4.5.4 6.3h-4.3zm-.7-13.4c-5.3-.1-11.2.8-11.2 5.9 0 3.1 2.1 4.6 4.5 4.6 3.4 0 5.6-2.2 6.4-4.4.2-.5.3-1 .3-1.5v-4.6zM146.6 63.9v7.6h6.9v3.7h-6.9v14.2c0 3.3.9 5.1 3.6 5.1 1.3 0 2.2-.2 2.8-.3l.2 3.6c-.9.4-2.4.7-4.3.7-2.2 0-4-.7-5.2-2-1.4-1.4-1.9-3.8-1.9-6.9V75.1h-4.1v-3.7h4.1v-6.3l4.8-1.2zM171.4 97.8l-.4-3.3h-.2a9.79 9.79 0 01-8.1 3.9c-5.4 0-8.1-3.8-8.1-7.6 0-6.4 5.7-9.9 15.9-9.8v-.5c0-2.2-.6-6.1-6-6.1-2.5 0-5 .8-6.9 2l-1.1-3.2c2.2-1.4 5.4-2.3 8.7-2.3 8.1 0 10.1 5.5 10.1 10.8v9.9c0 2.3.1 4.5.4 6.3h-4.3zm-.7-13.4c-5.3-.1-11.2.8-11.2 5.9 0 3.1 2.1 4.6 4.5 4.6 3.4 0 5.6-2.2 6.4-4.4.2-.5.3-1 .3-1.5v-4.6z"/></g></g></a></g><a href="https://ourworldindata.org/grapher/fertilizer-price-index-1960-2030" target="_blank"><text font-size="27" x="15" y="36.6" fill="#555"><tspan x="15" y="36.6">Fertilizer Price Index, 1960-2030</tspan></text></a><text font-size="14.4" x="15" y="55.5" fill="#666"><tspan x="15" y="55.52">Global fertilizer price index, measured relative to real prices in 2010 (where 2010 = 100). Also shown are World</tspan><tspan x="15" y="71.36">Bank projections of fertilizer prices to 2030.</tspan></text></g><g class="LineChart"><defs><clipPath id="a"><path d="M37.22 0h830v896h-830z"/></clipPath></defs><g class="AxisBoxView"><g class="HorizontalAxis" fill="#666" text-anchor="middle" font-size="16.2"><text x="47.2" y="541.9">1960</text><text x="158.3" y="541.9">1970</text><text x="269.4" y="541.9">1980</text><text x="380.6" y="541.9">1990</text><text x="491.7" y="541.9">2000</text><text x="602.8" y="541.9">2010</text><text x="713.9" y="541.9">2020</text><text x="825" y="541.9">2030</text></g><g class="VerticalAxis" fill="#666" dominant-baseline="middle" text-anchor="end" font-size="16.2"><text x="42.22" y="520.7">0</text><text x="42.22" y="412.3">50</text><text x="42.22" y="303.9">100</text><text x="42.22" y="195.5">150</text></g><g class="AxisGridLines"><path stroke="#ccc" d="M47.22 520.7H825"/><path stroke="#ddd" stroke-dasharray="3,2" d="M47.22 412.3H825M47.22 303.9H825M47.22 195.5H825"/></g><g class="AxisGridLines" stroke="#ddd" stroke-dasharray="3,2"><path d="M47.2 520.7V93.9M158.3 520.7V93.9M269.4 520.7V93.9M380.6 520.7V93.9M491.7 520.7V93.9M602.8 520.7V93.9M713.9 520.7V93.9M825 520.7V93.9"/></g></g><g clip-path="url(#a)"><g class="Lines"><g class="key-World_0"><path stroke="#3360a9" stroke-linecap="round" d="M47 378l11 3 11 5 12-3 11-31 11-7 11 21 11 22 11 26 11 18 11 10 11 5 12-21 11-41 11-263 11 141 11 129 11 2 11 7 11-18 11-32 12 6 11 37 11 9 11-24 11 24 11 36h11l11-16 11 7 12-4 11-10 11 12 11 19 11-21 11-17 11-4 11 18 11 6 12 7 11-13 11 2h11l11-14 11-15 11-19 11-1 11-49 12-233 11 190 11 20 11-62 11 8 11 46 11 23 11-10" fill="none" stroke-width="1.5"/><g fill="#3360a9"><circle cx="47" cy="378" r="2"/><circle cx="58" cy="381" r="2"/><circle cx="69" cy="386" r="2"/><circle cx="81" cy="383" r="2"/><circle cx="92" cy="352" r="2"/><circle cx="103" cy="345" r="2"/><circle cx="114" cy="366" r="2"/><circle cx="125" cy="388" r="2"/><circle cx="136" cy="414" r="2"/><circle cx="147" cy="432" r="2"/><circle cx="158" cy="442" r="2"/><circle cx="169" cy="447" r="2"/><circle cx="181" cy="426" r="2"/><circle cx="192" cy="385" r="2"/><circle cx="203" cy="122" r="2"/><circle cx="214" cy="263" r="2"/><circle cx="225" cy="392" r="2"/><circle cx="236" cy="394" r="2"/><circle cx="247" cy="401" r="2"/><circle cx="258" cy="383" r="2"/><circle cx="269" cy="351" r="2"/><circle cx="281" cy="357" r="2"/><circle cx="292" cy="394" r="2"/><circle cx="303" cy="403" r="2"/><circle cx="314" cy="379" r="2"/><circle cx="325" cy="403" r="2"/><circle cx="336" cy="439" r="2"/><circle cx="347" cy="439" r="2"/><circle cx="358" cy="423" r="2"/><circle cx="369" cy="430" r="2"/><circle cx="381" cy="426" r="2"/><circle cx="392" cy="416" r="2"/><circle cx="403" cy="428" r="2"/><circle cx="414" cy="447" r="2"/><circle cx="425" cy="426" r="2"/><circle cx="436" cy="409" r="2"/><circle cx="447" cy="405" r="2"/><circle cx="458" cy="423" r="2"/><circle cx="469" cy="429" r="2"/><circle cx="481" cy="436" r="2"/><circle cx="492" cy="423" r="2"/><circle cx="503" cy="425" r="2"/><circle cx="514" cy="425" r="2"/><circle cx="525" cy="411" r="2"/><circle cx="536" cy="396" r="2"/><circle cx="547" cy="377" r="2"/><circle cx="558" cy="376" r="2"/><circle cx="569" cy="327" r="2"/><circle cx="581" cy="94" r="2"/><circle cx="592" cy="284" r="2"/><circle cx="603" cy="304" r="2"/><circle cx="614" cy="242" r="2"/><circle cx="625" cy="250" r="2"/><circle cx="636" cy="296" r="2"/><circle cx="647" cy="319" r="2"/><circle cx="658" cy="309" r="2"/></g></g><g class="key-World_1"><path stroke="#3360a9" stroke-linecap="round" d="M658 309l11 38h12l11 1 11-1h11l11-1h11l11-1 11-1 11-1h12l11-1 11-1h11l11-1" fill="none" stroke-width="1.5" stroke-dasharray="1,4"/></g></g></g></g><g class="SourcesFooter" fill="#777"><g class="clickable" fill="#777"><text font-size="12.6" x="15" y="567"><tspan x="15" y="566.98">Source: Fertilizer prices - World Bank (2017)</tspan></text></g><text font-size="12.6" x="15" y="582.5"><tspan x="15" y="582.48"><a target="_blank" href="https://ourworldindata.org/wp-content/uploads/2017/11/Famines-by-political-regime-138x150.png" fill="#777">OurWorldInData.org/wp-content/uploads/2017/11/Famines-by-political-regime-138x150.png</a> • <a href="http://creativecommons.org/licenses/by-sa/4.0/deed.en_US" target="_blank" fill="#777">CC BY-SA</a></tspan></text></g></g></svg>

<svg xmlns="http://www.w3.org/2000/svg" version="1.1" style="font-family: 'Helvetica Neue', Helvetica, Arial, sans-serif; font-size: 18px; background-color: white; text-rendering: optimizeLegibility; -webkit-font-smoothing: antialiased;" width="850" height="600"><g class="ChartTab"><g class="HeaderView"><g opacity="0.8" transform="translate(770, 15) scale(0.31)"><a xmlns:xlink="http://www.w3.org/1999/xlink" xlink:href="https://ourworldindata.org" target="_blank"><g><rect x="0" y="0" fill="#1B2543" width="211.2" height="130.1"/><rect x="0" y="112.2" fill="#E63912" width="211.2" height="17.9"/><g><rect x="1.2" y="12.3" fill="none" width="210.2" height="99.2"/><path fill="#FFFFFF" d="M37.8,32.2c0,12.7-7.7,19.4-17.1,19.4c-9.7,0-16.6-7.5-16.6-18.7c0-11.7,7.3-19.3,17.1-19.3 C31.3,13.7,37.8,21.3,37.8,32.2z M9.2,32.8c0,7.9,4.3,14.9,11.8,14.9c7.5,0,11.8-6.9,11.8-15.3c0-7.3-3.8-14.9-11.8-14.9 C13.1,17.5,9.2,24.8,9.2,32.8z"/><path fill="#FFFFFF" d="M62.7,43.8c0,2.7,0.1,5.1,0.2,7.2h-4.3l-0.3-4.3h-0.1c-1.3,2.1-4,4.9-8.8,4.9c-4.2,0-9.1-2.3-9.1-11.6 V24.6h4.8v14.6c0,5,1.5,8.4,5.9,8.4c3.2,0,5.5-2.2,6.3-4.4c0.3-0.7,0.4-1.6,0.4-2.5V24.6h4.8V43.8z"/><path fill="#FFFFFF" d="M67.3,32.8c0-3.1-0.1-5.8-0.2-8.2h4.2l0.2,5.2h0.2c1.2-3.5,4.1-5.8,7.3-5.8c0.5,0,0.9,0.1,1.4,0.2v4.5 c-0.5-0.1-1-0.2-1.6-0.2c-3.4,0-5.8,2.6-6.5,6.2c-0.1,0.7-0.2,1.4-0.2,2.2V51h-4.8V32.8z"/><path fill="#FFFFFF" d="M95.4,51l-9.4-36.8h5l4.4,18.6c1.1,4.6,2.1,9.2,2.7,12.7h0.1c0.6-3.7,1.8-8,3-12.8l4.9-18.5h5l4.5,18.7 c1,4.4,2,8.7,2.6,12.6h0.1c0.8-4,1.8-8.1,3-12.7l4.9-18.5h4.9L120.6,51h-5L111,31.9c-1.1-4.7-1.9-8.3-2.4-12h-0.1 c-0.7,3.7-1.5,7.3-2.8,12L100.4,51H95.4z"/><path fill="#FFFFFF" d="M154.9,37.6c0,9.8-6.8,14-13.2,14c-7.2,0-12.7-5.2-12.7-13.6c0-8.8,5.8-14,13.1-14 C149.8,24,154.9,29.5,154.9,37.6z M133.9,37.9c0,5.8,3.3,10.1,8,10.1c4.6,0,8-4.3,8-10.3c0-4.5-2.2-10.1-7.9-10.1 C136.3,27.6,133.9,32.8,133.9,37.9z"/><path fill="#FFFFFF" d="M158.2,32.8c0-3.1-0.1-5.8-0.2-8.2h4.2l0.2,5.2h0.2c1.2-3.5,4.1-5.8,7.3-5.8c0.5,0,0.9,0.1,1.4,0.2v4.5 c-0.5-0.1-1-0.2-1.6-0.2c-3.4,0-5.8,2.6-6.5,6.2c-0.1,0.7-0.2,1.4-0.2,2.2V51h-4.8V32.8z"/><path fill="#FFFFFF" d="M173.5,12.3h4.8V51h-4.8V12.3z"/><path fill="#FFFFFF" d="M206.5,12.3v31.9c0,2.3,0.1,5,0.2,6.8h-4.3l-0.2-4.6H202c-1.5,2.9-4.7,5.2-9,5.2 c-6.4,0-11.3-5.4-11.3-13.4c-0.1-8.8,5.4-14.2,11.9-14.2c4,0,6.8,1.9,8,4h0.1V12.3H206.5z M201.7,35.4c0-0.6-0.1-1.4-0.2-2 c-0.7-3.1-3.3-5.6-6.9-5.6c-5,0-7.9,4.4-7.9,10.2c0,5.3,2.6,9.8,7.8,9.8c3.2,0,6.2-2.1,7.1-5.7c0.2-0.7,0.2-1.3,0.2-2.1V35.4z"/><path fill="#FFFFFF" d="M42.8,64c0.1,1.6-1.1,2.9-3.1,2.9c-1.7,0-2.9-1.3-2.9-2.9c0-1.7,1.3-3,3-3C41.7,61,42.8,62.3,42.8,64z M37.4,97.8V71.4h4.8v26.4H37.4z"/><path fill="#FFFFFF" d="M47.5,78.6c0-2.7-0.1-5-0.2-7.1h4.3l0.3,4.4h0.1c1.3-2.5,4.4-5,8.8-5c3.7,0,9.4,2.2,9.4,11.2v15.8h-4.8 V82.6c0-4.3-1.6-7.8-6.1-7.8c-3.2,0-5.6,2.2-6.5,4.9c-0.2,0.6-0.3,1.4-0.3,2.2v15.9h-4.8V78.6z"/><path fill="#FFFFFF" d="M84,61.6c2.9-0.4,6.3-0.8,10.1-0.8c6.8,0,11.7,1.6,14.9,4.6c3.3,3,5.2,7.3,5.2,13.2c0,6-1.9,10.9-5.3,14.3 c-3.4,3.4-9.1,5.3-16.3,5.3c-3.4,0-6.2-0.2-8.6-0.4V61.6z M88.8,94.1c1.2,0.2,3,0.3,4.8,0.3c10.2,0,15.7-5.7,15.7-15.6 c0.1-8.7-4.9-14.2-14.9-14.2c-2.5,0-4.3,0.2-5.6,0.5V94.1z"/><path fill="#FFFFFF" d="M132.1,97.8l-0.4-3.3h-0.2c-1.5,2.1-4.3,3.9-8.1,3.9c-5.4,0-8.1-3.8-8.1-7.6c0-6.4,5.7-9.9,15.9-9.8v-0.5 c0-2.2-0.6-6.1-6-6.1c-2.5,0-5,0.8-6.9,2l-1.1-3.2c2.2-1.4,5.4-2.3,8.7-2.3c8.1,0,10.1,5.5,10.1,10.8v9.9c0,2.3,0.1,4.5,0.4,6.3 H132.1z M131.4,84.4c-5.3-0.1-11.2,0.8-11.2,5.9c0,3.1,2.1,4.6,4.5,4.6c3.4,0,5.6-2.2,6.4-4.4c0.2-0.5,0.3-1,0.3-1.5V84.4z"/><path fill="#FFFFFF" d="M146.6,63.9v7.6h6.9v3.7h-6.9v14.2c0,3.3,0.9,5.1,3.6,5.1c1.3,0,2.2-0.2,2.8-0.3l0.2,3.6 c-0.9,0.4-2.4,0.7-4.3,0.7c-2.2,0-4-0.7-5.2-2c-1.4-1.4-1.9-3.8-1.9-6.9V75.1h-4.1v-3.7h4.1v-6.3L146.6,63.9z"/><path fill="#FFFFFF" d="M171.4,97.8l-0.4-3.3h-0.2c-1.5,2.1-4.3,3.9-8.1,3.9c-5.4,0-8.1-3.8-8.1-7.6c0-6.4,5.7-9.9,15.9-9.8v-0.5 c0-2.2-0.6-6.1-6-6.1c-2.5,0-5,0.8-6.9,2l-1.1-3.2c2.2-1.4,5.4-2.3,8.7-2.3c8.1,0,10.1,5.5,10.1,10.8v9.9c0,2.3,0.1,4.5,0.4,6.3 H171.4z M170.7,84.4c-5.3-0.1-11.2,0.8-11.2,5.9c0,3.1,2.1,4.6,4.5,4.6c3.4,0,5.6-2.2,6.4-4.4c0.2-0.5,0.3-1,0.3-1.5V84.4z"/></g></g></a></g><a href="https://ourworldindata.org/grapher/fertilizer-price-index-1960-2030" target="_blank"><text font-size="27.00" x="15.0" y="36.6" fill="#555"><tspan x="15" y="36.6">Fertilizer Price Index, 1960-2030</tspan></text></a><text font-size="14.40" x="15.0" y="55.5" fill="#666"><tspan x="15" y="55.519999999999996">Global fertilizer price index, measured relative to real prices in 2010 (where 2010 = 100). Also shown are World</tspan><tspan x="15" y="71.36">Bank projections of fertilizer prices to 2030.</tspan></text></g><g class="LineChart"><defs><clipPath id="boundsClip-266"><rect x="37.216" y="0" width="830" height="896"></rect></clipPath></defs><g class="AxisBoxView"><g class="HorizontalAxis"><text x="47.2" y="541.9" fill="#666" text-anchor="middle" font-size="16.2">1960</text><text x="158.3" y="541.9" fill="#666" text-anchor="middle" font-size="16.2">1970</text><text x="269.4" y="541.9" fill="#666" text-anchor="middle" font-size="16.2">1980</text><text x="380.6" y="541.9" fill="#666" text-anchor="middle" font-size="16.2">1990</text><text x="491.7" y="541.9" fill="#666" text-anchor="middle" font-size="16.2">2000</text><text x="602.8" y="541.9" fill="#666" text-anchor="middle" font-size="16.2">2010</text><text x="713.9" y="541.9" fill="#666" text-anchor="middle" font-size="16.2">2020</text><text x="825" y="541.9" fill="#666" text-anchor="middle" font-size="16.2">2030</text></g><g class="VerticalAxis"><text x="42.22" y="520.7" fill="#666" dominant-baseline="middle" text-anchor="end" font-size="16.2">0</text><text x="42.22" y="412.3" fill="#666" dominant-baseline="middle" text-anchor="end" font-size="16.2">50</text><text x="42.22" y="303.9" fill="#666" dominant-baseline="middle" text-anchor="end" font-size="16.2">100</text><text x="42.22" y="195.5" fill="#666" dominant-baseline="middle" text-anchor="end" font-size="16.2">150</text></g><g class="AxisGridLines"><line x1="47.22" y1="520.7" x2="825.00" y2="520.7" stroke="#ccc"></line><line x1="47.22" y1="412.3" x2="825.00" y2="412.3" stroke="#ddd" stroke-dasharray="3,2"></line><line x1="47.22" y1="303.9" x2="825.00" y2="303.9" stroke="#ddd" stroke-dasharray="3,2"></line><line x1="47.22" y1="195.5" x2="825.00" y2="195.5" stroke="#ddd" stroke-dasharray="3,2"></line></g><g class="AxisGridLines"><line x1="47.2" y1="520.70" x2="47.2" y2="93.90" stroke="#ddd" stroke-dasharray="3,2"></line><line x1="158.3" y1="520.70" x2="158.3" y2="93.90" stroke="#ddd" stroke-dasharray="3,2"></line><line x1="269.4" y1="520.70" x2="269.4" y2="93.90" stroke="#ddd" stroke-dasharray="3,2"></line><line x1="380.6" y1="520.70" x2="380.6" y2="93.90" stroke="#ddd" stroke-dasharray="3,2"></line><line x1="491.7" y1="520.70" x2="491.7" y2="93.90" stroke="#ddd" stroke-dasharray="3,2"></line><line x1="602.8" y1="520.70" x2="602.8" y2="93.90" stroke="#ddd" stroke-dasharray="3,2"></line><line x1="713.9" y1="520.70" x2="713.9" y2="93.90" stroke="#ddd" stroke-dasharray="3,2"></line><line x1="825" y1="520.70" x2="825" y2="93.90" stroke="#ddd" stroke-dasharray="3,2"></line></g></g><g clip-path="url(#boundsClip-266)"><g class="Lines"><rect x="47" y="94" width="778" height="427" fill="rgba(255,255,255,0)" opacity="0"></rect><g class="key-World_0"><path stroke="#3360a9" stroke-linecap="round" d="M47 378L58 381L69 386L81 383L92 352L103 345L114 366L125 388L136 414L147 432L158 442L169 447L181 426L192 385L203 122L214 263L225 392L236 394L247 401L258 383L269 351L281 357L292 394L303 403L314 379L325 403L336 439L347 439L358 423L369 430L381 426L392 416L403 428L414 447L425 426L436 409L447 405L458 423L469 429L481 436L492 423L503 425L514 425L525 411L536 396L547 377L558 376L569 327L581 94L592 284L603 304L614 242L625 250L636 296L647 319L658 309" fill="none" stroke-width="1.5"></path><g fill="#3360a9"><circle cx="47" cy="378" r="2"></circle><circle cx="58" cy="381" r="2"></circle><circle cx="69" cy="386" r="2"></circle><circle cx="81" cy="383" r="2"></circle><circle cx="92" cy="352" r="2"></circle><circle cx="103" cy="345" r="2"></circle><circle cx="114" cy="366" r="2"></circle><circle cx="125" cy="388" r="2"></circle><circle cx="136" cy="414" r="2"></circle><circle cx="147" cy="432" r="2"></circle><circle cx="158" cy="442" r="2"></circle><circle cx="169" cy="447" r="2"></circle><circle cx="181" cy="426" r="2"></circle><circle cx="192" cy="385" r="2"></circle><circle cx="203" cy="122" r="2"></circle><circle cx="214" cy="263" r="2"></circle><circle cx="225" cy="392" r="2"></circle><circle cx="236" cy="394" r="2"></circle><circle cx="247" cy="401" r="2"></circle><circle cx="258" cy="383" r="2"></circle><circle cx="269" cy="351" r="2"></circle><circle cx="281" cy="357" r="2"></circle><circle cx="292" cy="394" r="2"></circle><circle cx="303" cy="403" r="2"></circle><circle cx="314" cy="379" r="2"></circle><circle cx="325" cy="403" r="2"></circle><circle cx="336" cy="439" r="2"></circle><circle cx="347" cy="439" r="2"></circle><circle cx="358" cy="423" r="2"></circle><circle cx="369" cy="430" r="2"></circle><circle cx="381" cy="426" r="2"></circle><circle cx="392" cy="416" r="2"></circle><circle cx="403" cy="428" r="2"></circle><circle cx="414" cy="447" r="2"></circle><circle cx="425" cy="426" r="2"></circle><circle cx="436" cy="409" r="2"></circle><circle cx="447" cy="405" r="2"></circle><circle cx="458" cy="423" r="2"></circle><circle cx="469" cy="429" r="2"></circle><circle cx="481" cy="436" r="2"></circle><circle cx="492" cy="423" r="2"></circle><circle cx="503" cy="425" r="2"></circle><circle cx="514" cy="425" r="2"></circle><circle cx="525" cy="411" r="2"></circle><circle cx="536" cy="396" r="2"></circle><circle cx="547" cy="377" r="2"></circle><circle cx="558" cy="376" r="2"></circle><circle cx="569" cy="327" r="2"></circle><circle cx="581" cy="94" r="2"></circle><circle cx="592" cy="284" r="2"></circle><circle cx="603" cy="304" r="2"></circle><circle cx="614" cy="242" r="2"></circle><circle cx="625" cy="250" r="2"></circle><circle cx="636" cy="296" r="2"></circle><circle cx="647" cy="319" r="2"></circle><circle cx="658" cy="309" r="2"></circle></g></g><g class="key-World_1"><path stroke="#3360a9" stroke-linecap="round" d="M658 309L669 347L681 347L692 348L703 347L714 347L725 346L736 346L747 345L758 344L769 343L781 343L792 342L803 341L814 341L825 340" fill="none" stroke-width="1.5" stroke-dasharray="1,4"></path></g></g></g></g><g style="fill: #777;" class="SourcesFooter"><g style="fill: #777;" class="clickable"><text font-size="12.60" x="15.0" y="567.0"><tspan x="15" y="566.98">Source: Fertilizer prices - World Bank (2017)</tspan></text></g><text font-size="12.60" x="15.0" y="582.5"><tspan x="15" y="582.48"><a target='_blank' style='fill: #777;' href='https://ourworldindata.org/wp-content/uploads/2017/11/Famines-by-political-regime-138x150.png'>OurWorldInData.org/wp-content/uploads/2017/11/Famines-by-political-regime-138x150.png</a> • <a style="fill: #777;" href="http://creativecommons.org/licenses/by-sa/4.0/deed.en_US" target="_blank">CC BY-SA</a></tspan></text></g></g></svg>
